src/components/content/Icon/distinctive/circular-living.svg

<svg width="100" height="100" viewBox="0 0 100 100" fill="none" xmlns="http://www.w3.org/2000/svg">
<path d="M83.8398 52.577C83.7013 52.5125 83.5377 52.5406 83.4284 52.6479L75.3409 60.6354L73.0607 59.1604C73.0607 59.1604 73.0575 59.1583 73.0565 59.1573L65.3002 54.1406C65.2527 54.1099 65.1988 54.0906 65.1425 54.0843C65.0863 54.0779 65.0294 54.0847 64.9763 54.1041C64.9233 54.1237 64.8755 54.1554 64.8368 54.1966C64.7981 54.2378 64.7696 54.2875 64.7534 54.3416C64.7034 54.5104 64.6492 54.677 64.5929 54.8437C63.7492 57.3364 62.2586 59.5687 60.2575 61.325C60.1205 61.4449 59.9816 61.5626 59.8409 61.6781C57.7294 63.401 55.1909 64.5239 52.4648 64.9343C44.2138 66.1781 36.5023 60.5645 35.2763 52.4218C34.0492 44.2802 39.7648 36.6448 48.0159 35.401C49.9825 35.1041 51.9523 35.1906 53.8315 35.6364C54.0482 35.6875 54.2638 35.7448 54.4784 35.8052C54.495 35.8093 54.5107 35.8135 54.5273 35.8187C56.1502 36.2864 57.6961 37.0281 59.1054 38.0281C60.1096 38.7416 61.0096 39.5614 61.7919 40.4687C63.3586 42.2843 64.4586 44.452 64.9971 46.8187C65.0513 47.0552 65.0992 47.2937 65.1419 47.5343C65.1554 47.6093 65.1909 47.677 65.244 47.7302C65.2617 47.7479 65.2815 47.7635 65.3023 47.777L68.5409 49.8718L74.3523 53.6312H74.3534L74.3929 53.6573C74.4471 53.6916 74.5065 53.7104 74.5669 53.7145C74.6679 53.7208 74.77 53.6854 74.845 53.6104L83.6159 44.9468C83.7002 44.8635 83.7388 44.7448 83.719 44.6281C82.2742 35.8989 77.4909 28.2281 70.2502 23.0291C63.0034 17.826 54.1232 15.6979 45.245 17.0354C36.2825 18.3854 28.3742 23.101 22.9794 30.3125C17.5825 37.525 15.345 46.3708 16.6784 55.2208C18.0117 64.0708 22.7565 71.8656 30.0388 77.1677C35.9096 81.4427 42.8638 83.6854 50.0357 83.6854C51.7575 83.6854 53.4929 83.5562 55.2273 83.2948C59.1034 82.7104 62.8065 81.4916 66.2315 79.6708C69.5366 77.9149 72.5284 75.6242 75.0857 72.8916C80.22 67.4104 83.4013 60.3239 84.0429 52.9385C84.0495 52.8642 84.0331 52.7896 83.9958 52.7249C83.9585 52.6603 83.9022 52.6086 83.8346 52.577H83.8398ZM68.9054 47.3541C67.3742 37.1927 57.7565 30.1875 47.4648 31.7385C42.4804 32.4895 38.0825 35.1114 35.0825 39.1218C32.0804 43.1343 30.8357 48.0541 31.5773 52.9781C32.319 57.9021 34.9586 62.2364 39.0086 65.1864C42.2742 67.5645 46.1409 68.8114 50.1304 68.8114C51.0877 68.8114 52.0534 68.7395 53.0179 68.5937C59.8127 67.5698 65.4721 63.025 67.8961 56.6864L69.844 57.9468C68.5013 61.2093 66.3367 64.1052 63.5711 66.3364C60.6419 68.6989 57.1086 70.2468 53.3534 70.8125C41.8169 72.551 31.0357 64.702 29.32 53.3177C27.6044 41.9333 35.595 31.2573 47.1315 29.5187C52.7211 28.677 58.2992 30.0333 62.8388 33.3385C67.3773 36.6427 70.3336 41.4989 71.1648 47.0135C71.3565 48.2833 71.4294 49.5677 71.3846 50.8406L69.0971 49.3614C69.07 48.6948 69.0075 48.0198 68.9065 47.3531L68.9054 47.3541ZM75.0252 52.4114C75.2148 50.4364 75.1607 48.4375 74.8627 46.4562C73.8846 39.9625 70.4034 34.2427 65.0596 30.352C59.7179 26.4625 53.1544 24.8656 46.5784 25.8562C40.0023 26.8468 34.2002 30.3062 30.2419 35.5968C26.2825 40.8895 24.6409 47.3802 25.619 53.8739C26.5971 60.3677 30.0784 66.0875 35.4221 69.9771C39.7304 73.1135 44.8315 74.7593 50.094 74.7593C51.3565 74.7593 52.6304 74.6645 53.9034 74.4729C58.2086 73.8239 62.2773 72.0729 65.67 69.4083C68.8482 66.9125 71.3794 63.6656 73.0179 59.9989L74.9482 61.2479C73.1232 65.177 70.345 68.651 66.895 71.3114C63.2315 74.1364 58.8544 75.9968 54.2367 76.6927C52.8596 76.9008 51.469 77.0056 50.0763 77.0062C44.3304 77.0062 38.7596 75.2093 34.0575 71.7854C28.2273 67.5395 24.4284 61.3 23.3607 54.2146C22.2929 47.1291 24.0846 40.0468 28.4054 34.2729C32.7273 28.4968 39.0617 24.7198 46.2429 23.6375C47.6336 23.4281 49.0232 23.3239 50.4034 23.3239C56.1492 23.3239 61.72 25.1208 66.4221 28.5448C72.2523 32.7906 76.0513 39.0302 77.119 46.1156C77.3151 47.4165 77.415 48.7302 77.4179 50.0458L75.0242 52.4104L75.0252 52.4114ZM72.0898 51.2989C72.1711 49.8396 72.1034 48.3625 71.8836 46.9052C71.0232 41.1968 67.9627 36.1698 63.2659 32.7489C58.57 29.3302 52.8013 27.927 47.0211 28.7979C35.0867 30.5958 26.8221 41.6448 28.5971 53.4271C30.2065 64.1093 39.5242 71.7833 50.144 71.7833C51.2367 71.7833 52.3461 71.702 53.4596 71.5343C57.3429 70.9489 60.9971 69.3479 64.0273 66.9041C66.8534 64.625 69.07 61.6729 70.4627 58.3479L72.4013 59.602C70.8127 63.2031 68.3346 66.3916 65.22 68.8375C61.9263 71.4239 57.9752 73.125 53.795 73.7541C47.4096 74.7156 41.0377 73.1666 35.8513 69.3906C30.6669 65.6156 27.2888 60.0677 26.3398 53.7677C25.3909 47.4677 26.9836 41.1708 30.8252 36.0354C34.6679 30.8989 40.3013 27.5406 46.6867 26.5781C47.9232 26.3916 49.1586 26.3 50.3857 26.3C55.495 26.3 60.4482 27.8968 64.6294 30.9416C69.8138 34.7166 73.1919 40.2645 74.1409 46.5645C74.4492 48.6083 74.4888 50.6708 74.2617 52.7041L72.0888 51.2989H72.0898ZM78.1367 49.3385C78.1054 48.226 78.0075 47.1093 77.8409 46.0073C76.744 38.7281 72.8419 32.3177 66.8523 27.9562C60.8638 23.5958 53.5065 21.8062 46.1357 22.9177C38.7638 24.0281 32.2607 27.9062 27.8232 33.8375C23.3846 39.7698 21.544 47.0458 22.6409 54.325C23.7377 61.6041 27.6398 68.0145 33.6294 72.376C38.4586 75.8916 44.1773 77.7364 50.0763 77.7364C51.4929 77.7364 52.919 77.6302 54.3461 77.4156C59.0857 76.701 63.5794 74.7906 67.3409 71.8906C70.97 69.0927 73.8742 65.4187 75.744 61.2625L79.4534 57.5989C78.0336 62.9698 75.1419 67.8208 71.0409 71.6937C66.5263 75.9562 60.869 78.702 54.6804 79.6343C53.151 79.8653 51.6064 79.9816 50.0596 79.9823C43.6773 79.9823 37.4888 77.9864 32.2648 74.1833C25.7877 69.4666 21.5679 62.5354 20.3825 54.6646C19.1971 46.7937 21.1867 38.927 25.9867 32.5114C30.7877 26.0948 37.8242 21.9 45.8002 20.6979C47.345 20.4656 48.8888 20.35 50.4211 20.35C56.8034 20.35 62.9919 22.3458 68.2159 26.1489C74.6929 30.8645 78.9127 37.7968 80.0992 45.6666C80.1763 46.176 80.2398 46.6937 80.2898 47.2093L78.1357 49.3375L78.1367 49.3385ZM59.5284 37.4333C59.4232 37.3583 59.3169 37.2854 59.2096 37.2125C55.8961 34.977 51.8982 34.0781 47.9075 34.6791C39.2586 35.9823 33.269 43.9895 34.5554 52.5291C34.8836 54.7073 35.6534 56.7125 36.7617 58.4698C36.8846 58.6645 37.0127 58.8573 37.144 59.0468C37.2096 59.1416 37.2763 59.2354 37.344 59.3281C37.5471 59.6073 37.7596 59.8781 37.9794 60.1427C38.0534 60.2302 38.1273 60.3177 38.2023 60.4041C41.1409 63.7698 45.4804 65.8354 50.1711 65.8354C50.7648 65.8354 51.3659 65.802 51.969 65.7343C52.17 65.7114 52.3721 65.6854 52.5732 65.6552C55.619 65.1958 58.4419 63.8885 60.7377 61.8729C62.8523 60.0166 64.4242 57.6531 65.3044 55.0125L67.269 56.2833C64.97 62.452 59.4919 66.8812 52.9065 67.8729C48.1127 68.5948 43.3294 67.4312 39.4357 64.5968C35.544 61.7635 33.0086 57.5979 32.2961 52.8698C31.5836 48.1406 32.7794 43.4135 35.6638 39.5593C38.5492 35.7031 42.7773 33.1823 47.5711 32.4593C48.4961 32.3198 49.4138 32.2531 50.3211 32.2531C59.1242 32.2531 66.8492 38.6125 68.1825 47.4635C68.2534 47.9312 68.3054 48.4041 68.3388 48.8739L65.8315 47.252C65.0877 43.2791 62.8534 39.7968 59.5273 37.4343L59.5284 37.4333ZM74.5586 72.3927C72.0559 75.0667 69.1282 77.3084 65.894 79.027C62.5419 80.8093 58.919 82.0021 55.1242 82.5739C46.3523 83.8958 37.5971 81.7666 30.4721 76.5791C23.3492 71.3927 18.7075 63.7687 17.4034 55.1135C16.1002 46.4583 18.2888 37.8052 23.5669 30.75C28.8471 23.6927 36.5857 19.0791 45.3575 17.7573C54.0461 16.4479 62.7367 18.5312 69.8284 23.6229C76.8596 28.6708 81.5221 36.102 82.9721 44.5625L80.9523 46.5573C80.9138 46.2229 80.869 45.8895 80.82 45.5593C79.6054 37.4948 75.2815 30.3927 68.645 25.5604C62.0107 20.7302 53.8586 18.7468 45.6919 19.9781C37.5242 21.2083 30.319 25.5052 25.4023 32.076C20.4846 38.6479 18.4461 46.7093 19.6607 54.7739C20.8752 62.8385 25.1992 69.9416 31.8346 74.7729C37.1846 78.6687 43.5211 80.7125 50.0565 80.7125C51.6252 80.7125 53.2065 80.5948 54.7877 80.3562C61.1242 79.401 66.9169 76.5895 71.5398 72.2239C76.0336 67.9802 79.1086 62.5885 80.4388 56.6239L83.2169 53.8802C82.3992 60.7395 79.3471 67.2791 74.5575 72.3927H74.5586Z" fill="#0B301A"/>
</svg>

<svg xmlns="http://www.w3.org/2000/svg" width="100" height="100" fill="none" viewBox="0 0 100 100"><path fill="#0b301a" d="M83.84 52.577a.37.37 0 0 0-.412.07l-8.087 7.988-2.28-1.475-.005-.003-7.756-5.016a.365.365 0 0 0-.547.2q-.076.254-.16.503a15.04 15.04 0 0 1-4.752 6.834 15.23 15.23 0 0 1-7.376 3.256c-8.251 1.244-15.963-4.37-17.189-12.512s4.489-15.777 12.74-17.021a15.3 15.3 0 0 1 6.511.418 15.2 15.2 0 0 1 4.578 2.21 15 15 0 0 1 2.687 2.44 14.7 14.7 0 0 1 3.35 7.065.37.37 0 0 0 .16.243l3.239 2.095 5.811 3.76h.001l.04.025a.36.36 0 0 0 .452-.047l8.77-8.663a.36.36 0 0 0 .104-.319c-1.445-8.73-6.228-16.4-13.469-21.599-7.247-5.203-16.127-7.331-25.005-5.994-8.962 1.35-16.87 6.066-22.266 13.278s-7.634 16.058-6.3 24.908c1.333 8.85 6.078 16.645 13.36 21.947a33.84 33.84 0 0 0 19.997 6.517c1.721 0 3.457-.129 5.191-.39a34.3 34.3 0 0 0 11.005-3.624 34 34 0 0 0 8.854-6.78c5.134-5.48 8.315-12.567 8.957-19.953a.36.36 0 0 0-.208-.361zm-14.935-5.223c-1.53-10.161-11.148-17.166-21.44-15.615-4.985.75-9.382 3.372-12.382 7.383-3.003 4.012-4.247 8.932-3.506 13.856s3.382 9.258 7.432 12.208a18.8 18.8 0 0 0 11.121 3.625q1.439 0 2.888-.217c6.795-1.024 12.454-5.569 14.878-11.908l1.948 1.26a21.15 21.15 0 0 1-6.273 8.39 21.35 21.35 0 0 1-10.218 4.477C41.817 72.55 31.036 64.701 29.32 53.317s6.275-22.06 17.812-23.8c5.59-.841 11.167.515 15.707 3.82 4.538 3.305 7.495 8.16 8.326 13.676.191 1.27.264 2.554.22 3.827l-2.288-1.48a19 19 0 0 0-.19-2.008zm6.12 5.057c.19-1.975.136-3.974-.162-5.955-.978-6.494-4.46-12.213-9.803-16.104-5.342-3.89-11.906-5.486-18.482-4.496s-12.378 4.45-16.336 9.74c-3.96 5.294-5.601 11.784-4.623 18.278s4.46 12.214 9.803 16.103a24.83 24.83 0 0 0 14.672 4.782c1.262 0 2.536-.094 3.81-.286a25.14 25.14 0 0 0 11.766-5.065 24.9 24.9 0 0 0 7.348-9.41l1.93 1.25a27.25 27.25 0 0 1-8.053 10.063 27.5 27.5 0 0 1-12.658 5.382 28 28 0 0 1-4.16.313 27.1 27.1 0 0 1-16.02-5.22c-5.83-4.246-9.629-10.486-10.696-17.571s.724-14.168 5.044-19.942c4.322-5.776 10.657-9.553 17.838-10.636 1.39-.209 2.78-.313 4.16-.313a27.1 27.1 0 0 1 16.02 5.22c5.83 4.247 9.628 10.486 10.696 17.572.196 1.3.296 2.614.299 3.93zM72.09 51.3c.081-1.46.013-2.937-.206-4.394-.86-5.708-3.921-10.735-8.618-14.156C58.57 29.33 52.8 27.927 47.02 28.798c-11.934 1.798-20.199 12.847-18.424 24.63 1.61 10.681 10.927 18.355 21.547 18.355 1.093 0 2.202-.081 3.316-.249a22.1 22.1 0 0 0 10.567-4.63 21.87 21.87 0 0 0 6.436-8.556l1.938 1.254a24.2 24.2 0 0 1-7.181 9.236 24.4 24.4 0 0 1-11.425 4.916c-6.385.962-12.757-.587-17.944-4.363-5.184-3.775-8.562-9.323-9.511-15.623-.95-6.3.644-12.597 4.485-17.733 3.843-5.136 9.476-8.494 15.862-9.457a25 25 0 0 1 3.699-.278c5.109 0 10.062 1.597 14.243 4.642 5.185 3.775 8.563 9.322 9.512 15.623.308 2.043.348 4.106.12 6.14l-2.172-1.406m6.047-1.96a28 28 0 0 0-.296-3.332c-1.097-7.279-5-13.69-10.989-18.05-5.988-4.361-13.346-6.15-20.716-5.04-7.372 1.111-13.875 4.99-18.313 10.92-4.438 5.933-6.279 13.209-5.182 20.488 1.097 7.28 4.999 13.69 10.988 18.051a27.84 27.84 0 0 0 16.447 5.36q2.127 0 4.27-.32a28.2 28.2 0 0 0 12.995-5.525 27.95 27.95 0 0 0 8.403-10.629l3.71-3.663c-1.42 5.37-4.312 10.222-8.413 14.095-4.515 4.262-10.172 7.008-16.36 7.94-1.53.231-3.075.348-4.621.348a30.12 30.12 0 0 1-17.795-5.799c-6.477-4.716-10.697-11.648-11.882-19.518s.804-15.738 5.604-22.154S37.824 21.9 45.8 20.698a31 31 0 0 1 4.621-.348 30.12 30.12 0 0 1 17.795 5.799c6.477 4.715 10.697 11.648 11.883 19.518.077.509.14 1.027.19 1.542l-2.153 2.128zM59.528 37.433a17 17 0 0 0-.318-.22c-3.314-2.236-7.312-3.135-11.303-2.534-8.648 1.303-14.638 9.31-13.352 17.85a15.4 15.4 0 0 0 3.424 7.614q.11.131.223.261a15.9 15.9 0 0 0 14.371 5.251 15.95 15.95 0 0 0 8.165-3.782 15.76 15.76 0 0 0 4.566-6.86l1.965 1.27c-2.299 6.169-7.777 10.598-14.363 11.59-4.793.722-9.577-.442-13.47-3.276-3.892-2.833-6.427-7-7.14-11.727-.712-4.73.483-9.456 3.368-13.31 2.885-3.857 7.113-6.378 11.907-7.1q1.388-.209 2.75-.207c8.803 0 16.528 6.36 17.862 15.21.07.468.122.941.156 1.41l-2.507-1.621c-.744-3.973-2.979-7.455-6.305-9.818zm15.03 34.96a33.2 33.2 0 0 1-8.664 6.634 33.5 33.5 0 0 1-10.77 3.547c-8.772 1.322-17.527-.807-24.652-5.995-7.123-5.186-11.765-12.81-13.069-21.465-1.303-8.656.886-17.309 6.164-24.364 5.28-7.057 13.019-11.67 21.79-12.993 8.69-1.31 17.38.774 24.471 5.866 7.032 5.048 11.694 12.479 13.144 20.94l-2.02 1.994a31 31 0 0 0-.132-.998c-1.215-8.064-5.538-15.166-12.175-19.999-6.634-4.83-14.786-6.813-22.953-5.582s-15.373 5.527-20.29 12.098-6.956 14.633-5.741 22.698c1.214 8.065 5.538 15.168 12.174 19.999a30.84 30.84 0 0 0 18.222 5.94c1.568 0 3.15-.118 4.73-.357 6.337-.955 12.13-3.766 16.753-8.132 4.494-4.244 7.569-9.635 8.899-15.6l2.778-2.744c-.818 6.86-3.87 13.4-8.66 18.513z"/></svg>
